!!!ONB: MCCC : IJH0410_01 : Extracted Monophonic Melody
!!!COM: Haydn, Joseph
!!!OPR: String Quartet in B-flat major
!!!OMV: 1
!!!SCT: Hob.III:44 ; Op.50 No.1
!!!ODT: 1787///
**kern
*thru
*k[b-e-]
*B-:
*clefF
*M4/4
=2
3..ee-[
24ee-]
16ff
16gg
8ff
8ee-
=3
4dd
2.r
=4
3..gg[
24gg]
16aa
16bb-
8aa
8gg
=5
4ff
2r
12bb-
12ccc
12ddd
=6
12ccc
12bb-
12aa
4bb-
4r
12ddd
12eee-
12fff
=7
12eee-
12ddd
12ccc
4ddd
4r
12ddd
12eee-
12fff
=8
12eee-
12ddd
12ccc
12bb-
12aa
12gg
4ff
8ee-
16dd
16ee-
=9
2ee-
4dd
12b
12cc
12ee-
=10
12gg
12ff
12ee-
12dd
12cc
12b-
12a
12g
12f
12e-
12d
12c
=11
4B-
2.r
=12
1r
=13
3..ee-[
24ee-]
16ff
16gg
8ff
8ee-
=14
4dd
2.r
=15
4ff#
4.gg
16aa
16bb-
8aa
8gg
=16
4ff
2.r
=17
1r
=18
1r
=19
3..cc[
24cc]
16dd
16ee-
8dd
8cc
=20
4b-
4bb-
4bb-
4bb-
=21
4bb-
4bb-
4bb-
4bb-
=22
4bb-
4bb-
4bb-
4bb-
=23
4bb-
4bb-
4aa
4aa
=24
4bb-
4r
8cc
16dd
16ee-
8dd
8cc
=25
4b-
4r
4aa
4r
=26
4bb-
2.r
=27
2.dd
8ee-
8cc
=28
2cc
4b
4cc
=29
4r
2b-
4a
=30
12r
12g
12a
12b-
12a
12g
8r
8e
8f
8a
=31
8cc
8b
2b-
8a
16g
16a
=32
4g
2.r
=33
1r
=34
1r
=35
1r
=36
12aa
12bb-
12ccc
12bb-
12aa
12gg
12ff
12aa
12ccc
12fff
12ccc
12aa
=37
4bb-
4r
12b-
12cc
12dd
12cc
12b-
12a
=38
12g
12a
12b-
12a
12g
12f
12e
12f
12g
12f
12e
12d
=39
4c
2.r
=40
12dd
12ee
12ff
12ee
12dd
12cc
12b-
12cc
12dd
12cc
12b-
12a
=41
4g
2.r
=42
12bb-
12ccc
12ddd
12ccc
12bb-
12aa
12gg
12aa
12bb-
12aa
12gg
12ff
=43
12ee
12ff
12gg
12ff
12ee
12dd
12cc
12dd
12cc
12b-
12a
12g
=44
12a
12ccc
12ccc
12ccc
12aa
12ff
12ee
12cc
12ccc
12ccc
12aa
12ff
=45
12ee
12cc
12ccc
12ccc
12aa
12ff
12ee
12cc
12ccc
12ccc
12aa
12ff
=46
4dd
4ddd
4r
4gg
=47
4aa
2bb-
4aa
=48
4.gg
16aa
16bb-
4ff
4ee
=49
4ff
2.r
=50
1r
=51
2r
12ff
12ee
12ff
12gg
12ff
12ee
=52
12ff
12ee
12ff
12gg
12ff
12ee
12ff
12gg
12ff
12ee-
12dd
12ee-
=53
12dd
12ee-
12ee
12ff
12ff#
12gg
12aa
12bb-
12gg
12aa
12bb-
12gg
=54
2ff
2gg
=55
1ff
=56
1ff[
=57
4.ff]
16gg
16aa
12bb-
12aa
12bb-
12ddd
12ccc
12bb-
=58
12aa
12ccc
12bb-
12aa
12gg
12ff
12ee
12dd
12cc
12b-
12a
12g
=59
4f
4ff
2r
=60
1r
=61
1r
=62
1ee-
=63
4dd
2.r
=64
1dd-
=65
2.dd
4cc
=66
1b
=67
2cc
2b-
=68
1a
=69
2b-
2a-
=70
1g
=71
3..a-[
24a-]
16b-
16cc
8b-
8a-
=72
4g
2.r
=73
3..aa-[
24aa-]
16bb-
16ccc
8bb-
8aa-
=74
4gg
2.r
=75
3..a-[
24a-]
16b-
16cc
8b-
8a-
=76
3..g[
24g]
16a-
16b-
8a-
8g
=77
4f
2.r
=78
1r
=79
3..dd-[
24dd-]
16ee-
16ff
8ee-
8dd-
=80
4cc
2.r
=81
3..ddd-[
24ddd-]
16eee-
16fff
8eee-
8ddd-
=82
4ccc
2.r
=83
3..dd-[
24dd-]
16ee-
16ff
8ee-
8dd-
=84
3..cc[
24cc]
16dd-
16ee-
8dd-
8cc
=85
3..b-
12a-
12b-
12cc
12b-
12a-
=86
12g
12bb-
12aa-
12gg
12ff
12ee-
12dd
12cc
12b-
12a-
12g
12f
=87
4e-
2.r
=88
12e-
12bb-
12aa-
12gg
12ff
12ee-
12dd
12cc
12b-
12a-
12g
12f
=89
4e-
2.r
=90
4r
4gg
4gg
4gg
=91
4ff#
8gg
16ff#
16gg
4aa
4cc
=92
4b-
4gg
4gg
4gg
=93
1gg[
=94
12gg]
12ff#
12gg
12bb-
12ff#
12gg
12bb-
12ff#
12gg
12bb-
12aa
12gg
=95
12ff#
12dd
12ddd
12ddd
12bb-
12gg
12ff#
12dd
12ddd
12ddd
12bb-
12gg
=96
12ff#
12dd
12ddd
12ddd
12bb-
12gg
12ff#
12dd
12ddd
12ddd
12bb-
12gg
=97
12ee-
12cc
12ccc
12ccc
12aa
12ff
12dd
12b-
12bb-
12bb-
12gg
12ee-
=98
12cc
12a
12aa
12aa
12ff#
12cc
12b-
12g
12dd
12dd
12b-
12g
=99
12e-
12a-
12cc
12ee-
12cc
12a-
12f
12b
12dd
12ff
12dd
12b
=100
12g
12cc
12ee-
12gg
12ee-
12cc
12g
12gg
12aa
12bb-
12aa
12gg
=101
12ddd
12bb-
12gg
12dd
12b-
12g
2a
=102
4g
2.r
=103
1r
=104
1r
=105
3..dd[
24dd]
16ee-
16ff
8ee-
8dd
=106
3..ee-[
24ee-]
8dd
8ee-
8dd
=107
3..cc[
24cc]
16dd
16ee-
8dd
8cc
=108
4dd
2.r
=109
3..gg[
24gg]
16aa
16bb-
8aa
8gg
=110
4ff
2r
12bb-
12ccc
12ddd
=111
12ccc
12bb-
12aa
4bb-
4r
12ddd
12eee-
12fff
=112
12eee-
12ddd
12ccc
4ddd
4r
12ddd
12eee-
12fff
=113
12eee-
12ddd
12ccc
12bb-
12aa
12gg
4ff
8ee-
16dd
16ee-
=114
2ee-
4dd
12b
12cc
12ee-
=115
12gg
12ff
12ee-
12dd
12cc
12b
12cc
12dd
12cc
12b-
12a
12g
=116
12a
12b-
12cc
12b-
12a
12g
12f
12g
12f
12e-
12d
12c
=117
4B-
2.r
=118
12gg
12aa
12bb-
12aa
12gg
12ff
12ee-
12ff
12gg
12ff
12ee-
12dd
=119
4cc
2.r
=120
12ccc
12ddd
12eee-
12ddd
12ccc
12bb-
12aa
12bb-
12ccc
12bb-
12aa
12gg
=121
12ff
12gg
12ff
12ee-
12dd
12cc
12b-
12a
12g
12f
12g
12e-
=122
12d
12f
12b-
12d
12f
12b
12cc
12g
12e-
12d
12b
12dd
=123
12ee-
12cc
12g
12ee
12cc
12g
12f
12cc
12ff
12e-
12cc
12aa
=124
12d
12b-
12bb-
12gg
12ee-
12cc
12ff
12dd
12b-
12ee-
12cc
12a
=125
1bb-
=126
4bb-
4bb-
4bb-
4bb-
=127
12aa-
12bb-
12ccc
12bb-
12aa-
12gg
12ff
12gg
12aa-
12gg
12ff
12ee-
=128
3..dd
12ff
12gg
12aa-
12gg
12ff
=129
12gg
12aa-
12bb-
12aa-
12gg
12ff
12ee-
12ff
12gg
12ff
12ee-
12dd
=130
12cc
12ee-
12dd
12cc
12ee-
12ff
12gg
12ff
12ee-
12dd
12cc
12b-
=131
12a
12cc
12b-
12a
12ee-
12dd
12cc
12aa
12gg
12ff
12ccc
12bb-
=132
12aa
12eee-
12ccc
12aa
12eee-
12ccc
12aa
12ccc
12aa
12ff
12gg
12ee-
=133
12dd
12bb-
12bb-
12bb-
12aa
12gg
12ff
12gg
12gg
12gg
12ff
12ee-
=134
12dd
12ee-
12ee-
12ee-
12dd
12cc
12b-
12a
12b-
12cc
12b-
12a
=135
4b-
2.r
=136
12ddd
12ccc
12ddd
12eee-
12ddd
12ccc
12ddd
12ccc
12ddd
12eee-
12ddd
12ccc
=137
12ddd
12eee-
12fff
12ddd
12eee-
12fff
12gg
12aa
12bb-
12ccc
12ddd
12eee-
=138
2ff
2ccc
=139
12bb-
12ddd
12ccc
12bb-
12aa
12gg
12ff
12ee
12gg
12bb-
12gg
12ee
=140
12ff
12gg
12ff
12ee-
12dd
12cc
12b-
12a
12g
12f
12g
12e-
=141
12d
12ff
12ff
12ff
12dd
12b-
12a
12f
12ff
12ff
12dd
12b-
=142
12a
12f
12ff
12ff
12dd
12b-
12a
12f
12ff
12ff
12dd
12b-
=143
4g
4gg
4r
4cc
=144
4dd
2ee-
4dd
=145
4.cc
16dd
16ee-
4b-
4a
=146
4cc
4dd
4cc
4dd
=147
8aa
8r
8bb-
8r
8aa
8r
8bb-
8r
=148
4gg
4r
4a
4r
=149
4b-
2.r
=150
1r
=151
3..ee-[
24ee-]
16ff
16gg
8ff
8ee-
=152
4dd
2.r
=153
3..cc[
24cc]
16dd
16ee-
8dd
8cc
=154
4b-
2.r
=155
3..g[
24g]
16a
16b-
8a
8g
=156
2f
4e-
4d
=157
4.c
16d
16e-
4B-
4c
=158
4B-
2.r
=159
1a
=160
12b-
12bb-
12aa
12gg
12ff
12ee-
12dd
12cc
12b-
12a
12g
12f
=161
1e-
=162
4d
4r
4B-
4r
=163
4B-
2.r
==
*-
